X:5691
T:Gan Ainm
R:Reel
C:
S:
H:
N:
D:Clare FM Broadcast
Z:Adrian Scahill
M:4/4
L:1/8
K:A
EFAB c2Ac|c2Ac BAFA|EFAB c3d|ecAc B2AF:||
afef c3d|cBAc BAFA|afef c3d|cBAc B2fg|\
aee2 fcc2|ecAc BAFA|EFAB c3d|ecAc B2AF||


